src/icons/research.svg

<svg width="24" height="24" viewBox="0 0 24 24" fill="none" xmlns="http://www.w3.org/2000/svg">
<path d="M14.0502 3H4V20H9.86505C10.2622 20.7513 10.7832 21.4271 11.4009 22H2V1H14.8787L20 6.12134V9.86505C19.3797 9.53718 18.708 9.29374 18 9.15003V6.94976L14.0502 3Z" fill="black"/>
<path d="M6 6H15V8H6V6Z" fill="black"/>
<path d="M6 10H12.7558C11.8751 10.5084 11.1073 11.1907 10.4995 12H6V10Z" fill="black"/>
<path d="M9.0164 16C9.06228 15.303 9.20336 14.6321 9.42676 14H6V16H9.0164Z" fill="black"/>
<path fill-rule="evenodd" clip-rule="evenodd" d="M22 16.5C22 17.6575 21.6424 18.7315 21.0317 19.6175L23.7071 22.2929L22.2929 23.7071L19.6175 21.0317C18.7315 21.6424 17.6575 22 16.5 22C13.4624 22 11 19.5376 11 16.5C11 13.4624 13.4624 11 16.5 11C19.5376 11 22 13.4624 22 16.5ZM20 16.5C20 18.433 18.433 20 16.5 20C14.567 20 13 18.433 13 16.5C13 14.567 14.567 13 16.5 13C18.433 13 20 14.567 20 16.5Z" fill="black"/>
</svg>

<svg xmlns="http://www.w3.org/2000/svg" width="24" height="24" fill="none"><path fill="currentColor" d="M14.05 3H4v17h5.865a7.5 7.5 0 0 0 1.536 2H2V1h12.879L20 6.121v3.744a7.5 7.5 0 0 0-2-.715v-2.2z"/><path fill="currentColor" d="M6 6h9v2H6zm0 4h6.756a7.5 7.5 0 0 0-2.257 2H6zm3.016 6a7.5 7.5 0 0 1 .41-2H6v2z"/><path fill="currentColor" fill-rule="evenodd" d="M22 16.5a5.47 5.47 0 0 1-.968 3.117l2.675 2.676-1.414 1.414-2.675-2.675A5.5 5.5 0 1 1 22 16.5m-2 0a3.5 3.5 0 1 1-7 0 3.5 3.5 0 0 1 7 0" clip-rule="evenodd"/></svg>
